dist/svgs/unicons/line/dice-four.svg

<svg xmlns="http://www.w3.org/2000/svg" viewBox="0 0 24 24"><path d="M15 14a1 1 0 101 1 1 1 0 00-1-1zM9 8a1 1 0 101 1 1 1 0 00-1-1zm0 6a1 1 0 101 1 1 1 0 00-1-1zm6-6a1 1 0 101 1 1 1 0 00-1-1zm2-6H7a5 5 0 00-5 5v10a5 5 0 005 5h10a5 5 0 005-5V7a5 5 0 00-5-5zm3 15a3 3 0 01-3 3H7a3 3 0 01-3-3V7a3 3 0 013-3h10a3 3 0 013 3z"/></svg>

<svg xmlns="http://www.w3.org/2000/svg" viewBox="0 0 24 24"><path d="M15,14a1,1,0,1,0,1,1A1,1,0,0,0,15,14ZM9,8a1,1,0,1,0,1,1A1,1,0,0,0,9,8Zm0,6a1,1,0,1,0,1,1A1,1,0,0,0,9,14Zm6-6a1,1,0,1,0,1,1A1,1,0,0,0,15,8Zm2-6H7A5,5,0,0,0,2,7V17a5,5,0,0,0,5,5H17a5,5,0,0,0,5-5V7A5,5,0,0,0,17,2Zm3,15a3,3,0,0,1-3,3H7a3,3,0,0,1-3-3V7A3,3,0,0,1,7,4H17a3,3,0,0,1,3,3Z"/></svg>
